X:119
%%topmargin 3cm
T:Mr. Robertson of Lude
C:Neil Gow
O:Scotland
B:Keith Norman MacDonald : "The Skye collection of the best reels & strathspeys extant" : 1887
Z:Ralph Palmer
R:Strathspey
M:C
L:1/8
K:D
B | A<D (B/2A/2G/2F/2) A<D{/c}d>B | A<D (B/2A/2G/2F/2) TE2 E>B | A<D (B/2A/2G/2F/2) A<D Tf>e |
{/c}dF {FE}D2 D :: g | f<ad<f e<cd<B | A<Fd<F E2 E<g |
f<ad<f e>c{/d}d>B | AFdF D2 D :: F | A,>D (G/2F/2E/2D/2) A>D (G/2F/2E/2D/2) | A>d (B/2A/2G/2F/2) E2 E>F |
A,>D (G/2F/2E/2D/2) A>D (G/2F/2E/2D/2) | A<F {/c}d<F {FE}D2 D ::\ g | (f<d)A>d e>cA>F | {/F}G<BA<F E2 E<g |
[1 f<dA>d e<cA<F | Gde>c {/c}d<BA<F | A<F{/c}d<F {FE}D2 D |]
